X:173
T:The maids Of Mitchellstown
R:Reel
O:Ireland
B:O'Neill's 1410
S:O'Neill's 1410
Z:Transcription:Bob Safranek, minor arr., chords:Mike Long
M:C|
L:1/8
K:G
"D"D2AG "C"EFGE|"G"ABGE "C"cAGE|\
"D"D2AG "Am"EFGB|[1 "G"ABGE "C"CEGE:|[2 "C"AcGE "D"~ED"Fine"D2|]
|:"D"DEGA "Am"c2AG|"C"Adde "D"f2ed|\
"C"cAGE "D"FEFG|[1 "Am"AFGE "D"FDDz:|[2 "G"AddB "C"cAGE|]
